X: 3
T: The slow one
M: 4/4
L: 1/8
Q:100
K:Eb
GG 
|: d3 d e dd c | e<d-d4 GG | d3 d e dd c | e<d-d4 d e 
| f3 e e d d c | e/4 d/2 c6 =B c | d3 c =B2 A2 | G<g-g3 f f e 
| f4-f e e d | e4-e d d c | d6 d e | f3 e e d d c | e/4 d/2 c6 =B c
| d3 c =B2 A2 | G<d-d4 d e | f3 e e d d c | e/4 d/2 c6 =B c 
| ^c3 =c =B2 A2 |1 G6 G G :|2 G6 z2 | g2 f e d c =B A | G z d z g4 ||
